X:17
T:Ffigysbren (Clod)
M:C
L:1/4
Q:200
C:Trad.
R:Hymn
K:D
D2 F F | F2 A2 | G F E E | F4 | D2 FF | F2 A2 | G F E E | D4 | F2 A F |
D2 D2 | F F A F | E4 | D2 F F | F2 A2 | G F E E | D4 ||
